Numix-GalliumOS/64/mimetypes/image-x-xcf.svg

<svg xmlns="http://www.w3.org/2000/svg" xmlns:xlink="http://www.w3.org/1999/xlink" width="64px" height="64px" viewBox="0 0 64 64" version="1.1">
<g id="surface1">
<path style=" stroke:none;fill-rule:nonzero;fill:rgb(60.392157%,46.666667%,23.529412%);fill-opacity:1;" d="M 10.671875 0 C 9.296875 0 8 1.355469 8 2.789062 L 8 61.210938 C 8 62.566406 9.375 64 10.671875 64 L 53.328125 64 C 54.625 64 56 62.566406 56 61.210938 L 56 18 L 38 0 Z M 10.671875 0 "/>
<path style=" stroke:none;fill-rule:nonzero;fill:rgb(0%,0%,0%);fill-opacity:0.196078;" d="M 42 18 L 56 32 L 56 18 Z M 42 18 "/>
<path style=" stroke:none;fill-rule:nonzero;fill:rgb(100%,100%,100%);fill-opacity:0.392157;" d="M 38 0 L 55.984375 18 L 40.757812 18 C 39.410156 18 38 16.574219 38 15.226562 Z M 38 0 "/>
<path style=" stroke:none;fill-rule:nonzero;fill:rgb(100%,100%,100%);fill-opacity:1;" d="M 44.0625 23.886719 C 43.941406 23.953125 43.828125 24.148438 43.726562 24.460938 C 43.453125 25.304688 41.503906 31.132812 30.453125 31.414062 C 25.1875 31.554688 22.945312 26.851562 22.945312 26.851562 L 22.8125 32.894531 C 22.8125 32.894531 23.375 34.246094 22.25 35.652344 C 22.1875 35.558594 22.148438 35.445312 22.082031 35.351562 C 21.679688 34.78125 21.203125 34.300781 20.695312 33.9375 C 20.113281 33.523438 19.503906 33.25 18.90625 33.167969 C 18.222656 33.0625 17.546875 33.214844 17.023438 33.597656 C 16.488281 33.992188 16.179688 34.582031 16.054688 35.285156 C 15.953125 35.886719 15.992188 36.542969 16.195312 37.234375 C 16.367188 37.835938 16.648438 38.445312 17.050781 39.015625 C 17.480469 39.617188 18.015625 40.148438 18.578125 40.523438 C 19.207031 40.945312 19.871094 41.191406 20.527344 41.226562 C 20.734375 41.246094 20.941406 41.191406 21.128906 41.164062 C 25.363281 44.574219 33.78125 47.761719 39.359375 44.125 C 39.480469 44.160156 39.601562 44.207031 39.722656 44.253906 C 39.722656 44.3125 39.703125 44.367188 39.722656 44.425781 L 39.984375 44.320312 C 40.03125 44.339844 40.070312 44.378906 40.117188 44.386719 C 40.125 44.394531 40.144531 44.386719 40.15625 44.386719 L 40.25 44.488281 L 42.769531 45.398438 C 42.667969 46.28125 43.097656 47.292969 44.195312 47.714844 C 46.164062 48.484375 48 49.46875 48 49.46875 C 47.054688 46.222656 46.714844 43.628906 44.261719 43.851562 C 43.800781 43.898438 43.453125 44.085938 43.199219 44.359375 L 40.980469 42.914062 L 40.886719 42.914062 L 40.847656 42.878906 C 43.839844 39.898438 45.582031 34.28125 44.523438 24.523438 C 44.457031 24.039062 44.261719 23.792969 44.0625 23.886719 Z M 44.0625 23.886719 "/>
</g>
</svg>

<svg xmlns="http://www.w3.org/2000/svg" viewBox="0 0 64 64">
 <g>
  <path d="m 10.672 0 c -1.375 0 -2.672 1.355 -2.672 2.789 l 0 58.42 c 0 1.355 1.375 2.789 2.672 2.789 l 42.656 0 c 1.297 0 2.672 -1.434 2.672 -2.789 l 0 -43.21 l -18 -18 m -27.328 0" style="fill:#9a773c;fill-opacity:1;stroke:none;fill-rule:nonzero"/>
  <path d="m 42 18 l 14 14 l 0 -14 m -14 0" style="fill:#000;fill-opacity:0.196;stroke:none;fill-rule:nonzero"/>
  <path d="m 38 0 l 17.984 18 l -15.227 0 c -1.348 0 -2.758 -1.426 -2.758 -2.773 m 0 -15.227" style="fill:#fff;fill-opacity:0.392;stroke:none;fill-rule:nonzero"/>
  <path d="m 44.06 23.887 c -0.121 0.066 -0.234 0.262 -0.336 0.574 c -0.273 0.844 -2.223 6.672 -13.273 6.953 c -5.266 0.141 -7.508 -4.563 -7.508 -4.563 l -0.133 6.04 c 0 0 0.563 1.352 -0.563 2.758 c -0.063 -0.094 -0.102 -0.207 -0.168 -0.301 c -0.402 -0.57 -0.879 -1.051 -1.387 -1.414 c -0.582 -0.414 -1.191 -0.688 -1.789 -0.77 c -0.684 -0.105 -1.359 0.047 -1.883 0.43 c -0.535 0.395 -0.844 0.984 -0.969 1.688 c -0.102 0.602 -0.062 1.258 0.141 1.949 c 0.172 0.602 0.453 1.211 0.855 1.781 c 0.43 0.602 0.965 1.133 1.527 1.508 c 0.629 0.422 1.293 0.668 1.949 0.703 c 0.207 0.02 0.414 -0.035 0.602 -0.063 c 4.234 3.41 12.652 6.598 18.23 2.961 c 0.121 0.035 0.242 0.082 0.363 0.129 c 0 0.059 -0.02 0.113 0 0.172 l 0.262 -0.105 c 0.047 0.02 0.086 0.059 0.133 0.066 c 0.008 0.008 0.027 0 0.039 0 l 0.094 0.102 l 2.52 0.91 c -0.102 0.883 0.328 1.895 1.426 2.316 c 1.969 0.77 3.805 1.754 3.805 1.754 c -0.945 -3.246 -1.285 -5.84 -3.738 -5.617 c -0.461 0.047 -0.809 0.234 -1.063 0.508 l -2.219 -1.445 l -0.094 0 l -0.039 -0.035 c 2.992 -2.98 4.734 -8.598 3.676 -18.355 c -0.066 -0.484 -0.262 -0.73 -0.461 -0.637 m 0 0" style="fill:#fff;fill-opacity:1;stroke:none;fill-rule:nonzero"/>
 </g>
</svg>
